src/lib/icons/thumb-down.svg

<!--{
  "category": "Action"
}-->
<svg width="15" height="16" viewBox="0 0 15 16" fill="none" xmlns="http://www.w3.org/2000/svg">
<path fill-rule="evenodd" clip-rule="evenodd" d="M1.82545 1.82782L0.138187 6.72782C-0.118711 7.4757 -0.00706415 8.32213 0.436012 8.98573C1.24528 10.1978 2.74776 10.3647 4.13938 10.4032C4.32908 10.4085 4.51672 10.4114 4.70027 10.4142C4.78898 10.4155 4.87675 10.4169 4.96332 10.4185C5.02253 10.4196 5.08118 10.4208 5.1392 10.4222L5.13844 10.4536C5.12953 10.7791 5.08849 11.1026 5.01617 11.4197C4.95893 11.6707 4.88211 11.9178 4.78612 12.1587C4.39831 13.2648 4.43882 14.1995 4.90478 14.924C5.29173 15.5072 5.95074 15.9094 6.66728 15.9997C6.97797 15.9997 7.27123 15.9497 7.53247 15.768C7.77241 15.6012 7.9799 15.3301 8.02462 15.0346C8.04178 14.9156 8.05686 14.7953 8.07199 14.6746C8.136 14.1638 8.20104 13.6447 8.4298 13.1819L9.87685 10.2618C9.96262 10.0759 10.4891 9.88672 11.0046 9.73127L11.0047 10.0005C11.005 10.5526 11.4526 11 12.0047 11L14 11C14.5523 11 15 10.5523 15 9.99999L15 0.999992C15 0.447708 14.5523 -7.66854e-06 14 -7.71682e-06L12.0005 -7.89162e-06C11.471 -7.93791e-06 11.0376 0.411559 11.0027 0.932197C10.7359 0.832084 10.4743 0.706259 10.2113 0.579739C9.61465 0.29268 9.01052 0.00203843 8.31982 -6.30605e-06L4.46777 -6.6428e-06C3.30949 -0.0017081 2.2051 0.718239 1.82545 1.82782ZM6.13898 10.4432L6.15992 9.44657L5.16338 9.42247C5.0006 9.41853 4.84038 9.41595 4.68261 9.4134C3.99696 9.40234 3.35741 9.39202 2.75499 9.27472C2.04697 9.13686 1.56754 8.87955 1.26767 8.43044C0.996122 8.02374 0.929544 7.50271 1.08378 7.05318L2.77097 2.1534L2.7716 2.15155C3.00084 1.48155 3.69835 0.998863 4.4663 0.999993L8.31826 0.999994C8.73798 1.00161 9.13641 1.17239 9.75133 1.46814L9.83203 1.50707C10.1525 1.66186 10.5488 1.85328 10.9995 1.98449L10.9995 8.69075C10.8605 8.73053 10.7107 8.77447 10.5626 8.821C10.3176 8.89794 10.0421 8.99258 9.80486 9.10207C9.68714 9.15639 9.54983 9.22744 9.42108 9.31839C9.31608 9.39257 9.10825 9.55373 8.97752 9.82446L7.53378 12.7379L7.53331 12.7388C7.22062 13.3715 7.13164 14.1072 7.07009 14.6162C7.05902 14.7077 7.04885 14.7918 7.03842 14.8668C7.03674 14.8696 7.03438 14.8734 7.03116 14.878C7.02349 14.889 7.01295 14.9018 6.99978 14.9149C6.9866 14.928 6.97325 14.9389 6.96149 14.9471C6.93795 14.9634 6.88765 14.9923 6.73091 14.9985C6.31983 14.9292 5.95259 14.6906 5.742 14.377C5.50215 13.9996 5.40777 13.4192 5.72353 12.5076C5.98334 11.8481 6.12413 11.1499 6.13898 10.4432ZM12.0005 0.999992L14 0.999992L14 9.99999L12.0047 9.99999L12.0005 0.999992Z" fill="#7A859E"/>
</svg>

<!--{
  "category": "Action"
}-->
<svg xmlns="http://www.w3.org/2000/svg" width="15" height="16" fill="none"><path fill="#7A859E" fill-rule="evenodd" d="m1.825 1.828-1.687 4.9a2.585 2.585 0 0 0 .298 2.258c.81 1.212 2.312 1.379 3.703 1.417a44.095 44.095 0 0 0 .824.015l.176.004v.032a4.954 4.954 0 0 1-.353 1.705c-.388 1.106-.347 2.04.119 2.765A2.51 2.51 0 0 0 6.667 16c.311 0 .604-.05.865-.232.24-.167.448-.438.493-.733.017-.12.032-.24.047-.36.064-.511.129-1.03.358-1.493l1.447-2.92c.086-.186.612-.375 1.128-.53V10a1 1 0 0 0 1 .999H14a1 1 0 0 0 1-1V1a1 1 0 0 0-1-1h-2a1 1 0 0 0-.997.932A9.75 9.75 0 0 1 10.21.58C9.615.293 9.011.002 8.32 0H4.468C3.309-.002 2.205.718 1.825 1.828Zm4.314 8.615.02-.996-.996-.025-.48-.009c-.686-.01-1.326-.021-1.928-.138-.708-.138-1.187-.395-1.487-.845a1.585 1.585 0 0 1-.184-1.377l1.687-4.9v-.001c.23-.67.927-1.153 1.695-1.152h3.852c.42.002.818.172 1.433.468l.081.04c.32.154.717.345 1.167.476v6.707c-.139.04-.288.083-.436.13a6.56 6.56 0 0 0-.758.281 2.441 2.441 0 0 0-.384.216 1.346 1.346 0 0 0-.443.506l-1.444 2.914c-.313.633-.402 1.37-.464 1.878-.011.092-.021.176-.032.25a.275.275 0 0 1-.077.08c-.023.017-.073.046-.23.053a1.508 1.508 0 0 1-.989-.622c-.24-.377-.334-.958-.018-1.87.26-.659.4-1.357.415-2.064ZM12.001 1H14v9h-1.995L12 1Z" clip-rule="evenodd"/></svg>
